public/images/Logo-vertical.svg

<svg width="241" height="641" viewBox="0 0 241 641" fill="none" xmlns="http://www.w3.org/2000/svg">
<path d="M145.067 301.589C150.156 304.343 161.265 310.455 162.484 313.236C163.704 316.016 164.425 319.596 164.635 323.951V371.625L139.401 364.359L115.807 356.739C115.951 353.854 116.135 348.857 115.925 343.466C115.492 331.99 113.617 324.265 110.338 320.501C108.056 317.878 105.813 317.826 102.561 319.216C98.2063 321.065 95.7144 326.207 91.8716 332.253C88.4223 337.669 84.2385 343.191 79.5957 346.102L75.8972 347.781C74.166 348.266 72.3954 348.332 70.5724 347.847C67.687 347.086 61.7064 342.273 58.4932 339.545L56.4734 337.564V295.635C56.6833 291.412 57.4046 288.303 58.6243 286.31C59.8441 284.316 70.9527 285.379 76.0414 285.916V284.998L54.8865 278.388V348.28L55.6865 348.542C55.6865 347.191 56.0275 346.325 56.7226 345.932C57.4177 345.538 58.8211 345.696 60.9326 346.378L67.2935 348.437C67.4509 348.529 67.5952 348.621 67.7526 348.699C68.8411 349.289 69.9166 349.722 70.9658 349.998C79.9498 352.372 85.891 343.047 91.6224 334.023C95.3865 328.095 98.9539 322.508 103.059 320.751C105.748 319.61 107.846 320.724 109.538 322.429C114.01 326.954 113.472 342.876 112.384 355.637H112.331C112.109 358.982 111.925 361.264 111.925 361.264L111.545 362.72L160.163 378.419C162.288 379.101 163.691 379.861 164.373 380.701C165.068 381.54 165.409 382.629 165.409 383.979L166.209 384.242V307.727L145.054 300.671V301.589H145.067Z" fill="#2C2F30"/>
<path d="M0 421.75L240.154 593.469V590.006L0 418.183V421.75Z" fill="#2C2F30"/>
<path d="M136.28 551.423C127.847 547.016 118.863 544.799 109.315 544.799C99.7675 544.799 90.3901 547.042 81.7995 551.514C73.209 555.987 66.271 562.636 60.9593 571.476C55.6608 580.302 53.0115 590.847 53.0115 603.11V641H53.8115C53.8115 639.649 54.1525 638.665 54.8476 638.062C55.5427 637.446 56.9461 637.144 59.0576 637.144H158.472C160.596 637.144 162 637.446 162.682 638.062C163.377 638.679 163.718 639.662 163.718 641H164.518V602.559C164.518 590.296 161.921 579.817 156.727 571.109C151.534 562.4 144.714 555.842 136.294 551.423H136.28ZM162.918 602.375V629.786H54.6115V603.49C54.6115 592.578 57.1821 583.253 62.3233 575.529C67.4645 567.804 74.1664 562.007 82.4422 558.151C90.7179 554.295 99.5708 552.354 109.001 552.354C118.431 552.354 127.113 554.255 135.323 558.059C143.546 561.862 150.196 567.568 155.285 575.161C160.373 582.768 162.918 591.844 162.918 602.389V602.375Z" fill="#2C2F30"/>
<path d="M57.9032 175.091C56.4211 173.504 55.6736 171.602 55.6736 169.399L54.8735 169.15V184.219L55.6736 184.481C55.6736 182.278 56.4211 180.861 57.9032 180.232C59.3852 179.616 61.982 179.904 65.6937 181.098L154.602 209.807L54.8735 254.307V266.072L55.6736 266.334C55.6736 265.219 55.9621 264.406 56.5523 263.855C57.1294 263.304 58.5983 262.491 60.9197 261.402L61.3918 261.193L155.389 291.541C159.101 292.735 161.698 294.125 163.18 295.712C164.662 297.299 165.409 299.188 165.409 301.391L166.209 301.653V286.571L165.409 286.308C165.409 288.512 164.675 289.928 163.18 290.558C161.698 291.187 159.101 290.899 155.389 289.692L63.7788 260.104L166.209 213.545V211.709L65.6805 179.248C61.9689 178.042 59.3721 176.651 57.8901 175.078L57.9032 175.091Z" fill="#2C2F30"/>
<path d="M54.8735 70.864L55.6736 71.127C55.6736 69.776 56.0146 68.91 56.7097 68.517C57.4048 68.123 58.8081 68.2669 60.9197 68.9489L109.079 84.504C109.053 84.15 109.027 83.7699 109.013 83.3889H109.158C107.964 69.6839 107.072 51.65 111.807 49.434C113.499 48.634 115.61 48.66 118.286 51.244C122.391 55.218 125.958 62.7329 129.723 70.6939C133.788 79.2709 137.946 88.0579 143.218 93.3439C144.818 95.0229 146.667 96.531 148.609 97.252L149.212 97.4489C149.592 97.5929 149.986 97.7239 150.379 97.8419C150.432 97.8419 150.484 97.842 150.537 97.882L160.176 101.003C162.301 101.698 163.704 102.459 164.386 103.285C165.081 104.125 165.422 105.213 165.422 106.564L166.222 106.826V30.312L145.067 23.2559V24.174C150.156 26.915 161.265 33.0269 162.485 35.8199C163.704 38.6009 164.426 42.1679 164.635 46.5349V94.1309C162.721 94.6689 154.366 96.9109 150.786 95.9279C142.536 93.6459 136.201 81.501 130.641 69.749C126.798 61.618 123.152 53.946 118.797 49.736C115.532 46.588 113.302 45.6959 111.02 47.0859C107.741 49.0669 105.866 55.7819 105.433 67.0349C105.315 70.2219 105.328 73.3299 105.394 75.9529L56.4736 60.1619V18.2189C56.6834 13.9959 57.4048 10.888 58.6245 8.89496C59.8442 6.90096 70.9529 7.96292 76.0416 8.50092V7.58295L54.8866 0.972961V70.864H54.8735Z" fill="#2C2F30"/>
<path d="M125.815 386.091C121.355 388.583 117.381 392.045 113.88 396.491C110.378 400.937 106.299 406.826 101.63 414.144C97.4986 420.781 94.2591 425.62 91.9246 428.663C89.5901 431.706 87.1244 433.949 84.5276 435.378C81.9307 436.808 78.9405 437.227 75.5436 436.611C71.4123 435.772 67.7531 433.293 64.5661 429.201C61.3791 425.109 58.9003 419.981 57.0904 413.817C55.2936 407.652 54.3886 401.265 54.3886 394.642C54.3886 384.714 56.1986 377.238 59.7921 372.202C63.3988 367.179 69.3532 364.818 76.0289 365.382L76.0026 364.516L54.8214 357.919C54.8214 357.919 54.8477 360.516 54.9001 360.542C57.2478 361.88 61.0119 363.782 61.8906 365.015C58.4937 368.726 56.6314 372.871 55.0969 377.763C53.5624 382.668 52.7886 388.36 52.7886 394.865C52.7886 405.292 54.9132 415.115 59.1495 424.322C63.3988 433.542 69.4843 439.798 77.4453 443.103C82.4291 445.083 87.3343 443.811 92.1607 439.3C96.9871 434.788 102.207 427.929 107.833 418.695C111.965 411.941 115.69 406.485 118.968 402.341C122.26 398.196 125.88 395.075 129.867 392.989C133.841 390.904 138.117 390.589 142.668 392.071C147.442 393.619 151.573 396.478 155.075 400.675C156.465 402.354 157.724 404.137 158.852 406.026C158.747 405.895 158.655 405.764 158.55 405.633C161.134 410.367 163.495 414.499 161.606 421.961C159.285 431.076 146.602 436.873 134.851 443.024C126.719 447.274 119.047 451.3 114.837 456.126C111.689 459.733 110.798 463.419 112.175 465.937C114.168 469.557 120.883 471.065 132.123 471.537C140.281 471.878 156.373 476.009 156.478 476.009L162.695 477.885C162.695 477.885 159.036 474.96 158.983 474.908C157.75 473.504 156.806 472.022 156.019 470.789L155.901 469.36C159.639 465.806 161.895 461.727 163.888 456.874C165.96 451.812 167.233 445.857 167.718 438.985C168.505 427.968 166.892 417.423 162.905 407.338C158.904 397.265 152.648 390.17 144.11 386.051C142.851 385.474 141.094 384.924 139.336 384.556C134.576 383.179 130.064 383.678 125.801 386.051L125.815 386.091ZM114.548 464.507C113.748 462.632 113.775 460.31 116.372 457.346C120.345 452.795 127.861 448.861 135.821 444.69C147.94 438.342 160.478 431.771 162.97 421.843C163.259 420.676 163.403 419.482 163.403 418.289C163.403 417.528 163.35 416.768 163.259 416.007C164.911 421.319 165.751 426.63 165.751 431.916C165.751 443.195 163.547 451.536 159.154 456.913C156.806 459.786 154.157 462.776 150.983 464.927C148.32 466.396 145.081 467.406 141.618 468.048C141.5 468.048 141.382 468.048 141.264 468.048V468.101C129.723 470.121 116.044 467.983 114.562 464.507H114.548Z" fill="#2C2F30"/>
<path d="M125.815 108.807C121.356 111.286 117.382 114.762 113.88 119.208C110.378 123.654 106.299 129.543 101.63 136.861C97.499 143.497 94.2595 148.337 91.925 151.38C89.5905 154.435 87.1248 156.665 84.528 158.095C81.9312 159.524 78.9409 159.944 75.544 159.341C71.4127 158.488 67.7535 156.022 64.5665 151.93C61.3795 147.838 58.9007 142.71 57.0908 136.546C57.0383 136.363 56.9859 136.179 56.9334 135.995C56.6318 133.412 56.5137 131.012 56.8154 129.608C58.6646 121.005 68.488 118.631 77.9835 116.9C84.5542 115.693 92.489 113.975 95.899 110.63C98.4433 108.125 98.5876 105.817 97.4728 102.643C95.8596 98.079 87.7544 91.9411 78.9933 88.4261C77.9966 88.0331 76.9998 87.652 76.0031 87.285V87.246L75.3211 87.036C69.5503 84.964 64.2911 83.508 64.2386 83.495L64.1993 83.574L54.8087 80.649C54.8087 80.649 54.835 83.246 54.8874 83.285C57.2351 84.623 60.9992 86.524 61.8779 87.744C58.481 91.456 56.6187 95.6 55.0842 100.505C53.5497 105.397 52.7759 111.103 52.7759 117.595C52.7759 124.48 53.7071 131.103 55.5563 137.464C56.1859 140.31 57.2613 143.484 58.8089 146.999C58.8089 146.999 58.704 146.501 58.5335 145.674C58.7302 146.133 58.9401 146.593 59.1499 147.052C63.3993 156.272 69.4848 162.528 77.4457 165.833C82.4296 167.813 87.3347 166.554 92.1611 162.042C96.9875 157.531 102.207 150.658 107.834 141.438C111.965 134.684 115.69 129.228 118.969 125.083C122.261 120.926 125.881 117.818 129.868 115.719C133.841 113.634 138.117 113.332 142.668 114.801C147.442 116.336 151.573 119.208 155.075 123.405C158.577 127.602 161.226 132.467 163.023 138.015C164.833 143.563 165.725 149.098 165.725 154.619C165.725 165.898 163.521 174.226 159.128 179.617C154.734 184.994 149.304 190.752 141.239 190.752V193.362H141.199L141.16 194.28L166.735 201.769C166.735 201.769 163.39 199.172 163.338 199.132C160.846 197.532 156.295 193.926 155.416 192.562C159.456 188.902 161.816 184.679 163.889 179.617C165.961 174.567 167.233 168.6 167.718 161.728C168.505 150.711 166.892 140.166 162.905 130.093C158.905 120.008 152.649 112.912 144.111 108.794C142.852 108.217 141.094 107.666 139.337 107.299C134.576 105.922 130.064 106.42 125.802 108.807H125.815ZM54.4022 117.372C54.4022 107.443 56.2121 99.9681 59.8057 94.9311C62.1664 91.6391 65.5371 89.502 69.4585 88.57C72.2259 89.187 75.1899 89.816 78.2064 90.839C86.7445 93.712 95.6367 98.748 96.7383 102.617C97.381 104.886 97.3679 106.722 95.2694 108.781C92.0562 111.942 83.6755 113.621 77.2359 114.801C67.4257 116.598 57.2875 119.024 55.2809 128.388C55.2809 128.402 55.2809 128.415 55.2809 128.415C54.7038 124.808 54.4022 121.136 54.4022 117.372Z" fill="#2C2F30"/>
</svg>

<svg xmlns="http://www.w3.org/2000/svg" width="241" height="641" fill="none" viewBox="0 0 241 641"><path fill="#2c2f30" d="M145.067 301.589c5.089 2.754 16.198 8.866 17.417 11.647 1.22 2.78 1.941 6.36 2.151 10.715v47.674l-25.234-7.266-23.594-7.62c.144-2.885.328-7.882.118-13.273-.433-11.476-2.308-19.201-5.587-22.965-2.282-2.623-4.525-2.675-7.777-1.285-4.355 1.849-6.847 6.991-10.69 13.037-3.449 5.416-7.632 10.938-12.275 13.849l-3.699 1.679c-1.731.485-3.502.551-5.325.066-2.885-.761-8.866-5.574-12.079-8.302l-2.02-1.981v-41.929c.21-4.223.932-7.332 2.151-9.325 1.22-1.994 12.329-.931 17.417-.394v-.918l-21.154-6.61v69.892l.8.262c0-1.351.34-2.217 1.036-2.61.695-.394 2.098-.236 4.21.446l6.36 2.059c.158.092.302.184.46.262a14.5 14.5 0 0 0 3.213 1.299c8.984 2.374 14.925-6.951 20.656-15.975 3.764-5.928 7.332-11.515 11.437-13.272 2.689-1.141 4.787-.027 6.479 1.678 4.472 4.525 3.934 20.447 2.846 33.208h-.053c-.222 3.345-.406 5.627-.406 5.627l-.38 1.456 48.618 15.699q3.187 1.023 4.21 2.282c.695.839 1.036 1.928 1.036 3.278l.8.263v-76.515l-21.155-7.056v.918zM0 421.75l240.154 171.719v-3.463L0 418.183zM136.28 551.423c-8.433-4.407-17.417-6.624-26.965-6.624s-18.925 2.243-27.516 6.715c-8.59 4.473-15.528 11.122-20.84 19.962q-7.948 13.24-7.948 31.634V641h.8c0-1.351.342-2.335 1.037-2.938.695-.616 2.098-.918 4.21-.918h99.414c2.124 0 3.528.302 4.21.918.695.617 1.036 1.6 1.036 2.938h.8v-38.441c0-12.263-2.597-22.742-7.791-31.45-5.193-8.709-12.013-15.267-20.433-19.686zm26.638 50.952v27.411H54.612V603.49c0-10.912 2.57-20.237 7.711-27.961 5.142-7.725 11.843-13.522 20.12-17.378 8.275-3.856 17.128-5.797 26.558-5.797s18.112 1.901 26.322 5.705c8.223 3.803 14.873 9.509 19.962 17.102q7.632 11.41 7.633 27.228zM57.903 175.091c-1.482-1.587-2.23-3.489-2.23-5.692l-.8-.249v15.069l.8.262c0-2.203.748-3.62 2.23-4.249q2.223-.924 7.79.866l88.909 28.709-99.728 44.5v11.765l.8.262c0-1.115.288-1.928.878-2.479.577-.551 2.046-1.364 4.368-2.453l.472-.209 93.997 30.348q5.568 1.79 7.791 4.171c1.482 1.587 2.229 3.476 2.229 5.679l.8.262v-15.082l-.8-.263c0 2.204-.734 3.62-2.229 4.25q-2.223.944-7.791-.866l-91.61-29.588 102.43-46.559v-1.836L65.68 179.248q-5.567-1.81-7.79-4.17zM54.874 70.864l.8.263c0-1.351.34-2.217 1.036-2.61q1.042-.591 4.21.432l48.159 15.555a31 31 0 0 1-.066-1.115h.145c-1.194-13.705-2.086-31.739 2.649-33.955 1.692-.8 3.803-.774 6.479 1.81 4.105 3.974 7.672 11.489 11.437 19.45 4.065 8.577 8.223 17.364 13.495 22.65 1.6 1.679 3.449 3.187 5.391 3.908l.603.197c.38.144.774.275 1.167.393.053 0 .105 0 .158.04l9.639 3.121q3.187 1.043 4.21 2.282c.695.84 1.036 1.928 1.036 3.279l.8.262V30.312l-21.155-7.056v.918c5.089 2.741 16.198 8.853 17.418 11.646 1.219 2.78 1.941 6.348 2.15 10.715V94.13c-1.914.538-10.269 2.78-13.849 1.797-8.25-2.282-14.585-14.427-20.145-26.179-3.843-8.131-7.489-15.803-11.844-20.013-3.265-3.148-5.495-4.04-7.777-2.65-3.279 1.98-5.154 8.696-5.587 19.949a146 146 0 0 0-.039 8.918l-48.92-15.791V18.219c.21-4.223.93-7.331 2.15-9.324 1.22-1.994 12.329-.932 17.418-.394v-.918L54.887.973v69.891zM125.815 386.091c-4.46 2.492-8.434 5.954-11.935 10.4s-7.581 10.335-12.25 17.653c-4.131 6.637-7.37 11.476-9.705 14.519s-4.8 5.286-7.397 6.715-5.588 1.849-8.984 1.233c-4.132-.839-7.79-3.318-10.978-7.41s-5.666-9.22-7.476-15.384c-1.796-6.165-2.701-12.552-2.701-19.175 0-9.928 1.81-17.404 5.403-22.44 3.607-5.023 9.561-7.384 16.237-6.82l-.026-.866-21.182-6.597s.027 2.597.08 2.623c2.347 1.338 6.11 3.24 6.99 4.473-3.397 3.711-5.26 7.856-6.794 12.748-1.535 4.905-2.308 10.597-2.308 17.102 0 10.427 2.124 20.25 6.36 29.457 4.25 9.22 10.335 15.476 18.296 18.781 4.984 1.98 9.89.708 14.716-3.803s10.046-11.371 15.672-20.605c4.132-6.754 7.857-12.21 11.135-16.354 3.292-4.145 6.912-7.266 10.899-9.352 3.974-2.085 8.25-2.4 12.801-.918 4.774 1.548 8.905 4.407 12.407 8.604a43 43 0 0 1 3.777 5.351c-.105-.131-.197-.262-.302-.393 2.584 4.734 4.945 8.866 3.056 16.328-2.321 9.115-15.004 14.912-26.755 21.063-8.132 4.25-15.804 8.276-20.014 13.102-3.148 3.607-4.039 7.293-2.662 9.811 1.993 3.62 8.708 5.128 19.948 5.6 8.158.341 24.25 4.472 24.355 4.472l6.217 1.876s-3.659-2.925-3.712-2.977c-1.233-1.404-2.177-2.886-2.964-4.119l-.118-1.429c3.738-3.554 5.994-7.633 7.987-12.486 2.072-5.062 3.345-11.017 3.83-17.889.787-11.017-.826-21.562-4.813-31.647-4.001-10.073-10.257-17.168-18.795-21.287-1.259-.577-3.016-1.127-4.774-1.495q-7.14-2.065-13.535 1.495zm-11.267 78.416c-.8-1.875-.773-4.197 1.824-7.161 3.973-4.551 11.489-8.485 19.449-12.656 12.119-6.348 24.657-12.919 27.149-22.847.289-1.167.433-2.361.433-3.554 0-.761-.053-1.521-.144-2.282 1.652 5.312 2.492 10.623 2.492 15.909 0 11.279-2.204 19.62-6.597 24.997-2.348 2.873-4.997 5.863-8.171 8.014-2.663 1.469-5.902 2.479-9.365 3.121h-.354v.053c-11.541 2.02-25.22-.118-26.702-3.594zM125.815 108.807c-4.459 2.479-8.433 5.955-11.935 10.401s-7.581 10.335-12.25 17.653c-4.131 6.636-7.37 11.476-9.705 14.519-2.334 3.055-4.8 5.285-7.397 6.715s-5.587 1.849-8.984 1.246c-4.131-.853-7.79-3.319-10.977-7.411s-5.666-9.22-7.476-15.384l-.158-.551c-.301-2.583-.42-4.983-.118-6.387 1.85-8.603 11.673-10.977 21.169-12.708 6.57-1.207 14.505-2.925 17.915-6.27 2.544-2.505 2.689-4.813 1.574-7.987-1.613-4.564-9.719-10.702-18.48-14.217q-1.494-.59-2.99-1.141v-.039l-.682-.21a173 173 0 0 0-11.082-3.541l-.04.079-9.39-2.925s.026 2.597.078 2.636c2.348 1.338 6.112 3.239 6.99 4.459-3.396 3.712-5.258 7.856-6.793 12.761-1.534 4.892-2.308 10.598-2.308 17.09 0 6.885.931 13.508 2.78 19.869.63 2.846 1.705 6.02 3.253 9.535 0 0-.105-.498-.276-1.325.197.459.407.919.617 1.378 4.25 9.22 10.335 15.476 18.296 18.781 4.984 1.98 9.889.721 14.715-3.791s10.046-11.384 15.673-20.604c4.131-6.754 7.856-12.21 11.135-16.355 3.292-4.157 6.912-7.265 10.899-9.364 3.973-2.085 8.249-2.387 12.8-.918 4.774 1.535 8.905 4.407 12.407 8.604s6.151 9.062 7.948 14.61c1.81 5.548 2.702 11.083 2.702 16.604 0 11.279-2.204 19.607-6.597 24.998-4.394 5.377-9.824 11.135-17.889 11.135v2.61h-.04l-.039.918 25.575 7.489-3.397-2.637c-2.492-1.6-7.043-5.206-7.922-6.57 4.04-3.66 6.4-7.883 8.473-12.945 2.072-5.05 3.344-11.017 3.829-17.889.787-11.017-.826-21.562-4.813-31.635-4-10.085-10.256-17.181-18.794-21.299-1.259-.577-3.017-1.128-4.774-1.495-4.761-1.377-9.273-.879-13.535 1.508zm-71.413 8.565c0-9.929 1.81-17.404 5.404-22.44 2.36-3.293 5.731-5.43 9.653-6.362 2.767.617 5.73 1.246 8.747 2.269 8.539 2.873 17.43 7.909 18.532 11.778.643 2.269.63 4.105-1.469 6.164-3.213 3.161-11.594 4.84-18.033 6.02-9.81 1.797-19.949 4.223-21.955 13.587v.027a70 70 0 0 1-.879-11.043"/></svg>
